to HelloWorld\n resetall\n hideturtle\n fd 20 left 180\n fd 40 left 180\n fd 20 right 90\n fd 20 left 90\n fd 20 left 180\n fd 40 left 90\n fd 20 left 90\n fd 20 right 90\n fd 20 right 90\n fd 10 right 90\n fd 20 left 90\n fd 10 left 90\n fd 30 left 90\n fd 40 left 180\n fd 40 left 90\n fd 20 left 90\n fd 40 left 180\n fd 40 left 90\n fd 40 left 90\n fd 20 left 90\n fd 20 left 90\n fd 20 left 90\n fd 60 left 90\n fd 40 left 180\n fd 40 left 90\n fd 20 left 90\n fd 20 left 180\n fd 20 left 90\n fd 20 left 90\n fd 40 left 180\n fd 40 left 90\n fd 40 left 90\n fd 20 left 90\n fd 20 left 90\n fd 20 left 90\n fd 40 left 90\n fd 20 right 90\n fd 20 right 90\n fd 5  left 90  \n fd 5  left 90  \n fd 25 left 180\n fd 40 left 90\n fd 40 left 90\n fd 20 left 90\n fd 20 left 90\n fd 20 left 90\n fd 20 left 90\n fd 40 left 180\n fd 40\nend